packages/icons/src/add-graph.svg

<svg viewBox="0 0 24 24" fill="currentColor" xmlns="http://www.w3.org/2000/svg">
<rect rx="2" fill="currentColor"/>
<path fill-rule="evenodd" clip-rule="evenodd" d="M12 14.1254C15.0722 14.1254 17.5627 11.6349 17.5627 8.56268C17.5627 5.4905 15.0722 3 12 3C8.92785 3 6.43735 5.4905 6.43735 8.56268C6.43735 11.6349 8.92785 14.1254 12 14.1254ZM12.7558 11.4633C12.7558 11.7395 12.532 11.9633 12.2558 11.9633H11.7444C11.4683 11.9633 11.2444 11.7395 11.2444 11.4633L11.2444 9.31834H9.09953C8.82339 9.31834 8.59953 9.09448 8.59953 8.81834V8.30693C8.59953 8.03079 8.82339 7.80693 9.09953 7.80693H11.2444V5.66199C11.2444 5.38585 11.4683 5.16199 11.7444 5.16199H12.2558C12.532 5.16199 12.7558 5.38585 12.7558 5.66199V7.80693H14.9009C15.177 7.80693 15.4009 8.03079 15.4009 8.30693V8.81834C15.4009 9.09448 15.177 9.31834 14.9009 9.31834H12.7558V11.4633Z" fill="currentColor"/>
<path d="M17.3497 16.0289V21H19.4971V16.0289H17.3497ZM8.78262 16.7661V21H10.9301V16.7661H8.78262ZM13.0699 17.5033V21H15.2098V17.5033H13.0699ZM4.50288 18.2372V21H6.64275V18.2372H4.50288Z" fill="currentColor"/>
</svg>

<svg xmlns="http://www.w3.org/2000/svg" fill="currentColor" viewBox="0 0 24 24"><rect rx="2"/><path fill-rule="evenodd" d="M12 14.125A5.563 5.563 0 1 0 12 3a5.563 5.563 0 0 0 0 11.125Zm.756-2.662a.5.5 0 0 1-.5.5h-.512a.5.5 0 0 1-.5-.5V9.318H9.1a.5.5 0 0 1-.5-.5v-.511a.5.5 0 0 1 .5-.5h2.144V5.662a.5.5 0 0 1 .5-.5h.512a.5.5 0 0 1 .5.5v2.145H14.9a.5.5 0 0 1 .5.5v.511a.5.5 0 0 1-.5.5h-2.145v2.145Z" clip-rule="evenodd"/><path d="M17.35 16.029V21h2.147v-4.971H17.35Zm-8.567.737V21h2.147v-4.234H8.783Zm4.287.737V21h2.14v-3.497h-2.14Zm-8.567.734V21h2.14v-2.763h-2.14Z"/></svg>
